X: 273
%
U:~=!turn!
T: Kincaldrum
C:
O:Scotland
B:Keith Norman MacDonald : "The Skye collection of the best reels & strathspeys extant" : 1887
Z:Ralph Palmer
R:Reel
M:C|
L:1/8
K:G
B | {/f}g2 (dc) {dc}B2 (AG) | FGAB cAAf | {/g}gdec {dc}B2 (AG) | (FG)Ac BGG :|
B | (DG)BG cABG | (DG)BG {/B}cAAB | (DG)BG {/B}cABG | BdAc BGGB |
(DG)BG {/B}cABG | (DG)BG | {/B}cAAc | Bdef {/f}gedc | (Bd)Ac BGG |]


